X: 20971
M: 2/4
L: 1/16
K: F
V: 1 name="4"
(3(FFF) |\
c6 ag | f6 ef | g4 gfed | d4 c2z2 |\
g6 c2 | a6 gf | e2^fg d2ag | c6 "^D.C."z2 |]
cdcB cA_B=B | cfaf fegf | df_ba gfed | dc(ag) fedc |\
=Bcfc gcBc | Acfc afcA | GGce gfdB | cegc' "^D.C."c2 |]


